!!!OTL: MEIN FEINES LIEB VERLIESS MIT MIR
!!!ARE: Europa, Mitteleuropa, Deutschland
!!!SCT: Z0298
!!!YEM: Copyright 1995, estate of Helmut Schaffrath.
**kern
*ICvox
*Ivox
*M6/4
*k[b-e-a-d-g-]
*b-:
{4ff
=1
2b-
4dd-
2cc
4ee-
=2
2dd-
4cc
2b-}
{4ff
=3
2gg-
4ff
2ee-
4ff
=4
2ee-
4dd-
2cc}
{4ff
=5
2gg-
4ff
2ee-
4ff
=6
2ee-
4dd-
2cc}
{4cc
=7
2dd-
4cc
2b-
4cc
=8
2dd-
4ee-
2ff}
{4ff
=9
2aa-
4gg-
2ff
4ee-
=10
2gg-
4ff
2.ee-
=11
[2.dd-
2dd-]}
{4ff
=12
2b-
4cc
2dd-
4ee-
=13
[2.ff
2ff]}
{4ff
=14
2b-
4cc
2dd-
4ee-
=15
[2.ff
2ff]}
{4ff
=16
2gg-
4ee-
2cc
4ee-
=17
2ff
4dd-
2.cc
=18
[2.b-
2b-]}
==
!!!AGN: Lyrisches Lied, Romanze, verlassene Liebe
!!!ONB: ESAC (Essen Associative Code) Database: ZUCCAL
!!!AMT: compound duple
!!!AIN: vox
!!!EED: Helmut Schaffrath
!!!EEV: 1.0
*-
